X:196
T:The Gatehouse Maid
M:4/4
L:1/8
F:http://blackrosetheband.googlepages.com/ABCTUNES.ABC May 2009
R:reel
K:ADor
"Am"A2(3Bcd edBA|"G"G2GA GEDz/2B/2|"Am"A2(3Bcd edBd|1"G"egdB BABG:|2"G"egdB "Am"BAA2||
"Am"a2ea agef|"G"(3gag dg (3gag dg|"Am"a2ea agab|"G"gedB "Am"BAA2|
"Am"(3aba ab agef|"G"(3gag ga g2 ge|dega (3bag ab|gedB BABG||
